public/logo.svg

<svg height="28" viewBox="0 0 155 28" width="155" xmlns="http://www.w3.org/2000/svg"><g fill="none" fill-rule="evenodd"><path d="m53.796 20 1.818-6.966 1.818 6.966h2.718l2.916-9.972h-2.412l-1.764 7.578-1.872-7.578h-2.664l-1.908 7.596-1.764-7.596h-2.556l2.934 9.972zm14.994.162c1.188 0 2.19-.309 3.006-.927s1.368-1.407 1.656-2.367h-2.718c-.396.804-1.062 1.206-1.998 1.206-.648 0-1.194-.204-1.638-.612s-.696-.972-.756-1.692h7.29c.048-.288.072-.612.072-.972 0-.972-.207-1.833-.621-2.583s-.996-1.329-1.746-1.737-1.599-.612-2.547-.612c-.984 0-1.854.21-2.61.63s-1.344 1.02-1.764 1.8-.63 1.686-.63 2.718c0 1.02.213 1.92.639 2.7s1.02 1.383 1.782 1.809 1.623.639 2.583.639zm2.304-6.084h-4.734c.096-.672.357-1.197.783-1.575s.951-.567 1.575-.567c.66 0 1.218.195 1.674.585s.69.909.702 1.557zm10.26 6.084c.852 0 1.623-.216 2.313-.648s1.236-1.041 1.638-1.827.603-1.689.603-2.709-.201-1.917-.603-2.691-.948-1.371-1.638-1.791-1.461-.63-2.313-.63c-.732 0-1.383.15-1.953.45s-1.017.69-1.341 1.17v-4.806h-2.52v13.32h2.52v-1.422c.336.468.783.849 1.341 1.143s1.209.441 1.953.441zm-.666-2.214c-.456 0-.885-.117-1.287-.351s-.726-.573-.972-1.017-.369-.966-.369-1.566.123-1.122.369-1.566.57-.783.972-1.017.831-.351 1.287-.351c.468 0 .903.114 1.305.342s.726.561.972.999.369.957.369 1.557c0 .612-.123 1.14-.369 1.584s-.57.786-.972 1.026-.837.36-1.305.36zm10.872 2.214c.792 0 1.485-.129 2.079-.387s1.05-.615 1.368-1.071.477-.972.477-1.548c-.012-.66-.189-1.191-.531-1.593s-.747-.699-1.215-.891-1.062-.378-1.782-.558c-.708-.18-1.23-.357-1.566-.531s-.504-.429-.504-.765c0-.3.123-.534.369-.702s.597-.252 1.053-.252c.492 0 .885.117 1.179.351s.459.549.495.945h2.412c-.072-1.008-.462-1.809-1.17-2.403s-1.656-.891-2.844-.891c-.804 0-1.503.132-2.097.396s-1.05.624-1.368 1.08-.477.96-.477 1.512c0 .672.171 1.206.513 1.602s.75.69 1.224.882 1.083.378 1.827.558c.72.192 1.245.369 1.575.531s.495.405.495.729c0 .3-.135.546-.405.738s-.645.288-1.125.288c-.492 0-.903-.126-1.233-.378s-.519-.57-.567-.954h-2.538c.036.612.243 1.17.621 1.674s.891.903 1.539 1.197 1.38.441 2.196.441zm7.272-11.322c.444 0 .813-.141 1.107-.423s.441-.633.441-1.053-.147-.771-.441-1.053-.663-.423-1.107-.423-.813.141-1.107.423-.441.633-.441 1.053.147.771.441 1.053.663.423 1.107.423zm1.242 11.16v-9.972h-2.52v9.972zm7.65 0v-2.124h-1.17c-.384 0-.657-.075-.819-.225s-.243-.393-.243-.729v-4.824h2.232v-2.07h-2.232v-2.466h-2.538v2.466h-1.188v2.07h1.188v4.806c0 2.064 1.062 3.096 3.186 3.096zm6.174.162c1.188 0 2.19-.309 3.006-.927s1.368-1.407 1.656-2.367h-2.718c-.396.804-1.062 1.206-1.998 1.206-.648 0-1.194-.204-1.638-.612s-.696-.972-.756-1.692h7.29c.048-.288.072-.612.072-.972 0-.972-.207-1.833-.621-2.583s-.996-1.329-1.746-1.737-1.599-.612-2.547-.612c-.984 0-1.854.21-2.61.63s-1.344 1.02-1.764 1.8-.63 1.686-.63 2.718c0 1.02.213 1.92.639 2.7s1.02 1.383 1.782 1.809 1.623.639 2.583.639zm2.304-6.084h-4.734c.096-.672.357-1.197.783-1.575s.951-.567 1.575-.567c.66 0 1.218.195 1.674.585s.69.909.702 1.557zm9.612 5.922v-2.124h-1.17c-.384 0-.657-.075-.819-.225s-.243-.393-.243-.729v-4.824h2.232v-2.07h-2.232v-2.466h-2.538v2.466h-1.188v2.07h1.188v4.806c0 2.064 1.062 3.096 3.186 3.096zm5.706.162c.744 0 1.401-.153 1.971-.459s1.017-.693 1.341-1.161v1.458h2.538v-9.972h-2.538v1.422c-.336-.456-.783-.834-1.341-1.134s-1.209-.45-1.953-.45c-.852 0-1.623.21-2.313.63s-1.236 1.02-1.638 1.8-.603 1.674-.603 2.682c0 1.02.201 1.923.603 2.709s.948 1.395 1.638 1.827 1.455.648 2.295.648zm.666-2.214c-.456 0-.885-.12-1.287-.36s-.726-.585-.972-1.035-.369-.975-.369-1.575.123-1.119.369-1.557.567-.771.963-.999.828-.342 1.296-.342.906.117 1.314.351.732.57.972 1.008.36.963.36 1.575-.12 1.137-.36 1.575-.564.774-.972 1.008-.846.351-1.314.351zm10.17 2.052v-13.32h-2.52v13.32zm5.004 0v-4.248l3.384 4.248h3.276l-4.428-4.968 4.392-5.004h-3.276l-3.348 4.23v-7.578h-2.52v13.32z" fill="#08111b" fill-rule="nonzero"/><rect fill="#fece00" height="24" rx="6" transform="matrix(.8660254 -.5 .5 .8660254 -5.392305 7.875644)" width="12" x="6" y="2"/><rect fill="#ff3700" height="24" rx="6" transform="matrix(.8660254 -.5 .5 .8660254 -3.78461 13.875644)" width="12" x="18" y="2"/><rect fill="#ff7301" height="24" rx="6" transform="matrix(.8660254 .5 -.5 .8660254 9.411543 -7.124356)" width="12" x="12" y="2"/><rect fill="#bf031f" height="24" rx="6" transform="matrix(.8660254 .5 -.5 .8660254 11.019238 -13.124356)" width="12" x="24" y="2"/></g></svg>

<?xml version="1.0" encoding="UTF-8"?>
<svg width="155px" height="28px" viewBox="0 0 155 28" version="1.1" xmlns="http://www.w3.org/2000/svg" xmlns:xlink="http://www.w3.org/1999/xlink">
    <title>Group 3</title>
    <g id="Page-1" stroke="none" stroke-width="1" fill="none" fill-rule="evenodd">
        <g id="Mobile-Copy-3" transform="translate(-118.000000, -115.000000)">
            <g id="Group-3" transform="translate(118.000000, 115.000000)">
                <path d="M53.796,20 L55.614,13.034 L57.432,20 L60.15,20 L63.066,10.028 L60.654,10.028 L58.89,17.606 L57.018,10.028 L54.354,10.028 L52.446,17.624 L50.682,10.028 L48.126,10.028 L51.06,20 L53.796,20 Z M68.79,20.162 C69.978,20.162 70.98,19.853 71.796,19.235 C72.612,18.617 73.164,17.828 73.452,16.868 L73.452,16.868 L70.734,16.868 C70.338,17.672 69.672,18.074 68.736,18.074 C68.088,18.074 67.542,17.87 67.098,17.462 C66.654,17.054 66.402,16.49 66.342,15.77 L66.342,15.77 L73.632,15.77 C73.68,15.482 73.704,15.158 73.704,14.798 C73.704,13.826 73.497,12.965 73.083,12.215 C72.669,11.465 72.087,10.886 71.337,10.478 C70.587,10.07 69.738,9.866 68.79,9.866 C67.806,9.866 66.936,10.076 66.18,10.496 C65.424,10.916 64.836,11.516 64.416,12.296 C63.996,13.076 63.786,13.982 63.786,15.014 C63.786,16.034 63.999,16.934 64.425,17.714 C64.851,18.494 65.445,19.097 66.207,19.523 C66.969,19.949 67.83,20.162 68.79,20.162 Z M71.094,14.078 L66.36,14.078 C66.456,13.406 66.717,12.881 67.143,12.503 C67.569,12.125 68.094,11.936 68.718,11.936 C69.378,11.936 69.936,12.131 70.392,12.521 C70.848,12.911 71.082,13.43 71.094,14.078 L71.094,14.078 Z M81.354,20.162 C82.206,20.162 82.977,19.946 83.667,19.514 C84.357,19.082 84.903,18.473 85.305,17.687 C85.707,16.901 85.908,15.998 85.908,14.978 C85.908,13.958 85.707,13.061 85.305,12.287 C84.903,11.513 84.357,10.916 83.667,10.496 C82.977,10.076 82.206,9.866 81.354,9.866 C80.622,9.866 79.971,10.016 79.401,10.316 C78.831,10.616 78.384,11.006 78.06,11.486 L78.06,11.486 L78.06,6.68 L75.54,6.68 L75.54,20 L78.06,20 L78.06,18.578 C78.396,19.046 78.843,19.427 79.401,19.721 C79.959,20.015 80.61,20.162 81.354,20.162 Z M80.688,17.948 C80.232,17.948 79.803,17.831 79.401,17.597 C78.999,17.363 78.675,17.024 78.429,16.58 C78.183,16.136 78.06,15.614 78.06,15.014 C78.06,14.414 78.183,13.892 78.429,13.448 C78.675,13.004 78.999,12.665 79.401,12.431 C79.803,12.197 80.232,12.08 80.688,12.08 C81.156,12.08 81.591,12.194 81.993,12.422 C82.395,12.65 82.719,12.983 82.965,13.421 C83.211,13.859 83.334,14.378 83.334,14.978 C83.334,15.59 83.211,16.118 82.965,16.562 C82.719,17.006 82.395,17.348 81.993,17.588 C81.591,17.828 81.156,17.948 80.688,17.948 Z M91.56,20.162 C92.352,20.162 93.045,20.033 93.639,19.775 C94.233,19.517 94.689,19.16 95.007,18.704 C95.325,18.248 95.484,17.732 95.484,17.156 C95.472,16.496 95.295,15.965 94.953,15.563 C94.611,15.161 94.206,14.864 93.738,14.672 C93.27,14.48 92.676,14.294 91.956,14.114 C91.248,13.934 90.726,13.757 90.39,13.583 C90.054,13.409 89.886,13.154 89.886,12.818 C89.886,12.518 90.009,12.284 90.255,12.116 C90.501,11.948 90.852,11.864 91.308,11.864 C91.8,11.864 92.193,11.981 92.487,12.215 C92.781,12.449 92.946,12.764 92.982,13.16 L92.982,13.16 L95.394,13.16 C95.322,12.152 94.932,11.351 94.224,10.757 C93.516,10.163 92.568,9.866 91.38,9.866 C90.576,9.866 89.877,9.998 89.283,10.262 C88.689,10.526 88.233,10.886 87.915,11.342 C87.597,11.798 87.438,12.302 87.438,12.854 C87.438,13.526 87.609,14.06 87.951,14.456 C88.293,14.852 88.701,15.146 89.175,15.338 C89.649,15.53 90.258,15.716 91.002,15.896 C91.722,16.088 92.247,16.265 92.577,16.427 C92.907,16.589 93.072,16.832 93.072,17.156 C93.072,17.456 92.937,17.702 92.667,17.894 C92.397,18.086 92.022,18.182 91.542,18.182 C91.05,18.182 90.639,18.056 90.309,17.804 C89.979,17.552 89.79,17.234 89.742,16.85 L89.742,16.85 L87.204,16.85 C87.24,17.462 87.447,18.02 87.825,18.524 C88.203,19.028 88.716,19.427 89.364,19.721 C90.012,20.015 90.744,20.162 91.56,20.162 Z M98.832,8.84 C99.276,8.84 99.645,8.699 99.939,8.417 C100.233,8.135 100.38,7.784 100.38,7.364 C100.38,6.944 100.233,6.593 99.939,6.311 C99.645,6.029 99.276,5.888 98.832,5.888 C98.388,5.888 98.019,6.029 97.725,6.311 C97.431,6.593 97.284,6.944 97.284,7.364 C97.284,7.784 97.431,8.135 97.725,8.417 C98.019,8.699 98.388,8.84 98.832,8.84 Z M100.074,20 L100.074,10.028 L97.554,10.028 L97.554,20 L100.074,20 Z M107.724,20 L107.724,17.876 L106.554,17.876 C106.17,17.876 105.897,17.801 105.735,17.651 C105.573,17.501 105.492,17.258 105.492,16.922 L105.492,16.922 L105.492,12.098 L107.724,12.098 L107.724,10.028 L105.492,10.028 L105.492,7.562 L102.954,7.562 L102.954,10.028 L101.766,10.028 L101.766,12.098 L102.954,12.098 L102.954,16.904 C102.954,18.968 104.016,20 106.14,20 L106.14,20 L107.724,20 Z M113.898,20.162 C115.086,20.162 116.088,19.853 116.904,19.235 C117.72,18.617 118.272,17.828 118.56,16.868 L118.56,16.868 L115.842,16.868 C115.446,17.672 114.78,18.074 113.844,18.074 C113.196,18.074 112.65,17.87 112.206,17.462 C111.762,17.054 111.51,16.49 111.45,15.77 L111.45,15.77 L118.74,15.77 C118.788,15.482 118.812,15.158 118.812,14.798 C118.812,13.826 118.605,12.965 118.191,12.215 C117.777,11.465 117.195,10.886 116.445,10.478 C115.695,10.07 114.846,9.866 113.898,9.866 C112.914,9.866 112.044,10.076 111.288,10.496 C110.532,10.916 109.944,11.516 109.524,12.296 C109.104,13.076 108.894,13.982 108.894,15.014 C108.894,16.034 109.107,16.934 109.533,17.714 C109.959,18.494 110.553,19.097 111.315,19.523 C112.077,19.949 112.938,20.162 113.898,20.162 Z M116.202,14.078 L111.468,14.078 C111.564,13.406 111.825,12.881 112.251,12.503 C112.677,12.125 113.202,11.936 113.826,11.936 C114.486,11.936 115.044,12.131 115.5,12.521 C115.956,12.911 116.19,13.43 116.202,14.078 L116.202,14.078 Z M125.814,20 L125.814,17.876 L124.644,17.876 C124.26,17.876 123.987,17.801 123.825,17.651 C123.663,17.501 123.582,17.258 123.582,16.922 L123.582,16.922 L123.582,12.098 L125.814,12.098 L125.814,10.028 L123.582,10.028 L123.582,7.562 L121.044,7.562 L121.044,10.028 L119.856,10.028 L119.856,12.098 L121.044,12.098 L121.044,16.904 C121.044,18.968 122.106,20 124.23,20 L124.23,20 L125.814,20 Z M131.52,20.162 C132.264,20.162 132.921,20.009 133.491,19.703 C134.061,19.397 134.508,19.01 134.832,18.542 L134.832,18.542 L134.832,20 L137.37,20 L137.37,10.028 L134.832,10.028 L134.832,11.45 C134.496,10.994 134.049,10.616 133.491,10.316 C132.933,10.016 132.282,9.866 131.538,9.866 C130.686,9.866 129.915,10.076 129.225,10.496 C128.535,10.916 127.989,11.516 127.587,12.296 C127.185,13.076 126.984,13.97 126.984,14.978 C126.984,15.998 127.185,16.901 127.587,17.687 C127.989,18.473 128.535,19.082 129.225,19.514 C129.915,19.946 130.68,20.162 131.52,20.162 Z M132.186,17.948 C131.73,17.948 131.301,17.828 130.899,17.588 C130.497,17.348 130.173,17.003 129.927,16.553 C129.681,16.103 129.558,15.578 129.558,14.978 C129.558,14.378 129.681,13.859 129.927,13.421 C130.173,12.983 130.494,12.65 130.89,12.422 C131.286,12.194 131.718,12.08 132.186,12.08 C132.654,12.08 133.092,12.197 133.5,12.431 C133.908,12.665 134.232,13.001 134.472,13.439 C134.712,13.877 134.832,14.402 134.832,15.014 C134.832,15.626 134.712,16.151 134.472,16.589 C134.232,17.027 133.908,17.363 133.5,17.597 C133.092,17.831 132.654,17.948 132.186,17.948 Z M142.356,20 L142.356,6.68 L139.836,6.68 L139.836,20 L142.356,20 Z M147.36,20 L147.36,15.752 L150.744,20 L154.02,20 L149.592,15.032 L153.984,10.028 L150.708,10.028 L147.36,14.258 L147.36,6.68 L144.84,6.68 L144.84,20 L147.36,20 Z" id="websitetalk" fill="#08111B" fill-rule="nonzero"></path>
                <g id="Group-2">
                    <rect id="Rectangle-Copy-3" fill="#FECE00" style="mix-blend-mode: multiply;" transform="translate(12.000000, 14.000000) rotate(-390.000000) translate(-12.000000, -14.000000) " x="6" y="2" width="12" height="24" rx="6"></rect>
                    <rect id="Rectangle-Copy-3" fill="#FF3700" style="mix-blend-mode: multiply;" transform="translate(24.000000, 14.000000) rotate(-390.000000) translate(-24.000000, -14.000000) " x="18" y="2" width="12" height="24" rx="6"></rect>
                    <rect id="Rectangle-Copy-3" fill="#FF7301" style="mix-blend-mode: multiply;" transform="translate(18.000000, 14.000000) rotate(-690.000000) translate(-18.000000, -14.000000) " x="12" y="2" width="12" height="24" rx="6"></rect>
                    <rect id="Rectangle-Copy-3" fill="#BF031F" style="mix-blend-mode: multiply;" transform="translate(30.000000, 14.000000) rotate(-690.000000) translate(-30.000000, -14.000000) " x="24" y="2" width="12" height="24" rx="6"></rect>
                </g>
            </g>
        </g>
    </g>
</svg>
